src/icons/elixir-lock.svg

<svg width="16" height="16" viewBox="0 0 16 16" fill="none" xmlns="http://www.w3.org/2000/svg">
<g clip-path="url(#clip0_38_165)">
<path d="M8 14C11.3137 14 14 11.3137 14 8C14 4.68629 11.3137 2 8 2C4.68629 2 2 4.68629 2 8C2 11.3137 4.68629 14 8 14Z" fill="#EDECEA"/>
<path d="M7.56325 12C6.14768 12 5 10.6367 5 8.95526C5 7.57775 6.01728 5.89472 6.80264 4.86944C7.17481 4.38448 7.87744 4 7.87744 4C7.87744 4 7.51719 5.96178 8.49436 6.74082C9.36154 7.43243 10 8.33207 10 9.12347C10 10.7085 8.97905 12 7.56325 12Z" fill="#5654BC"/>
<path fill-rule="evenodd" clip-rule="evenodd" d="M15.25 10.667H14.875V9.905C14.875 8.853 14.035 8 13 8C11.965 8 11.125 8.853 11.125 9.905V10.667H10.75C10.5498 10.6696 10.3588 10.7511 10.2184 10.8938C10.0779 11.0365 9.99946 11.2288 10 11.429V15.239C10 15.657 10.338 16 10.75 16H15.25C15.662 16 16 15.657 16 15.238V11.428C16.0003 11.228 15.9217 11.0359 15.7813 10.8935C15.6409 10.751 15.45 10.6696 15.25 10.667ZM13 14.095C12.7998 14.0924 12.6088 14.0109 12.4684 13.8682C12.3279 13.7255 12.2495 13.5332 12.25 13.333C12.25 12.914 12.588 12.571 13 12.571C13.412 12.571 13.75 12.914 13.75 13.333C13.75 13.753 13.412 14.095 13 14.095ZM11.838 9.905V10.667H14.163V9.905C14.163 9.253 13.641 8.724 13 8.724C12.359 8.724 11.838 9.255 11.838 9.905Z" fill="#FFCB6B"/>
</g>
<defs>
<clipPath id="clip0_38_165">
<rect width="16" height="16" fill="white"/>
</clipPath>
</defs>
</svg>

<svg xmlns="http://www.w3.org/2000/svg" width="16" height="16" fill="none"><path fill="#5654BC" fill-rule="evenodd" d="M4.5 9.217c0 2.45 1.67 4.435 3.728 4.435q.382-.001.734-.083v-2.65c0-.488.393-.887.873-.887h.786v-.314c0-.668.29-1.267.75-1.673-.388-.727-1.027-1.445-1.788-2.053C8.16 4.857 8.685 2 8.685 2s-1.022.56-1.563 1.266C5.98 4.76 4.5 7.211 4.5 9.217" clip-rule="evenodd"/><path fill="#FFCB6B" fill-rule="evenodd" d="M15.25 10.667h-.375v-.762C14.875 8.853 14.035 8 13 8s-1.875.853-1.875 1.905v.762h-.375a.76.76 0 0 0-.75.762v3.81c0 .418.338.761.75.761h4.5c.412 0 .75-.343.75-.762v-3.81a.76.76 0 0 0-.75-.761M13 14.095a.76.76 0 0 1-.75-.762c0-.419.338-.762.75-.762s.75.343.75.762c0 .42-.338.762-.75.762m-1.162-4.19v.762h2.325v-.762c0-.652-.522-1.181-1.163-1.181s-1.162.53-1.162 1.18" clip-rule="evenodd"/></svg>
